public/images/website/soundcloud.svg

<?xml version="1.0" encoding="UTF-8"?>
<svg width="48px" height="48px" viewBox="0 0 48 48" version="1.1" xmlns="http://www.w3.org/2000/svg" xmlns:xlink="http://www.w3.org/1999/xlink">
    <!-- Generator: Sketch 53.2 (72643) - https://sketchapp.com -->
    <title>soundcloud</title>
    <desc>Created with Sketch.</desc>
    <defs>
        <linearGradient x1="50.0002151%" y1="0%" x2="50.0002151%" y2="100.000566%" id="linearGradient-1">
            <stop stop-color="#F79810" offset="0%"></stop>
            <stop stop-color="#F8310E" offset="100%"></stop>
        </linearGradient>
    </defs>
    <g id="Page-1" stroke="none" stroke-width="1" fill="none" fill-rule="evenodd">
        <circle id="Oval" fill="url(#linearGradient-1)" fill-rule="nonzero" cx="24" cy="24" r="24"></circle>
        <path d="M4.45297629,23.9355167 C4.36952197,23.9355167 4.30327472,24.0034336 4.2925203,24.1003283 L4,26.4389314 L4.2925203,28.7372373 C4.30327472,28.834132 4.36952197,28.901596 4.45297629,28.901596 C4.53384955,28.901596 4.59966661,28.8345848 4.61257192,28.7381429 L4.61257192,28.7381429 L4.61257192,28.7376901 C4.61257192,28.7376901 4.61257192,28.7376901 4.61257192,28.7381429 L4.95929451,26.4389314 L4.61257192,24.0998755 C4.60009679,24.0034336 4.53341937,23.9355167 4.45297629,23.9355167 Z M6.09797279,22.6577746 C6.08420713,22.5572577 6.015809,22.4879825 5.93149433,22.4879825 C5.84674948,22.4879825 5.77663064,22.5595216 5.76501586,22.6577746 C5.76501586,22.6586801 5.37183417,26.4389314 5.37183417,26.4389314 L5.76501586,30.1363242 C5.77620046,30.2354828 5.8463193,30.3070218 5.93149433,30.3070218 C6.01537882,30.3070218 6.08377695,30.2372939 6.09754261,30.1372297 L6.5449266,26.4389314 L6.09797279,22.6577746 Z M12.294241,19.1700185 C12.1329247,19.1700185 11.9995698,19.3090216 11.9918266,19.4856054 L11.6786578,26.4421009 L11.9918266,30.9377429 C12,31.1134211 12.1329247,31.2519715 12.294241,31.2519715 C12.454697,31.2519715 12.5876217,31.1129683 12.5970856,30.9368373 L12.5970856,30.9381957 L12.9511211,26.4421009 L12.5970856,19.4856054 C12.5876217,19.3090216 12.454697,19.1700185 12.294241,19.1700185 Z M9.08727214,21.587858 C8.96338119,21.587858 8.86228962,21.6919971 8.85239555,21.8310003 L8.49965048,26.4402898 L8.85239555,30.8997095 C8.86185944,31.037807 8.96338119,31.1419462 9.08727214,31.1419462 C9.20987256,31.1419462 9.31096413,31.037807 9.32171856,30.8997095 L9.72264344,26.4402898 L9.32171856,21.8300947 C9.31096413,21.6919971 9.20987256,21.587858 9.08727214,21.587858 Z M15.5532613,31.2515187 C15.7532935,31.2515187 15.9159004,31.0817266 15.9240738,30.8643927 L16.2312201,26.4443648 L15.924504,17.1827718 C15.9163306,16.9654379 15.7537237,16.7956458 15.5536915,16.7956458 C15.3519385,16.7956458 15.1889014,16.9658907 15.1824488,17.1832245 C15.1824488,17.1836773 14.9101468,26.443912 14.9101468,26.443912 L15.1824488,30.865751 C15.1889014,31.0812738 15.3519385,31.2515187 15.5532613,31.2515187 Z M22.2253052,31.2723465 C22.5006184,31.2723465 22.7277518,31.033732 22.7329139,30.7403313 L22.7329139,30.7435007 L22.7329139,30.7403313 L22.947142,26.4470815 L22.7329139,15.750632 C22.728182,15.457684 22.5006184,15.2186168 22.2253052,15.2186168 C21.9495618,15.2186168 21.7219982,15.4572313 21.7176964,15.7510848 L21.5262677,26.4434592 C21.5262677,26.4502509 21.7176964,30.743048 21.7176964,30.743048 C21.7219982,31.033732 21.9499919,31.2723465 22.2253052,31.2723465 Z M18.8639028,31.2555937 C19.1035113,31.2555937 19.2966608,31.0532015 19.3031134,30.7951175 L19.3031134,30.798287 L19.5638006,26.4452703 L19.3026832,17.116666 C19.2962306,16.858582 19.1030811,16.6566426 18.8634726,16.6566426 C18.6221434,16.6566426 18.4289939,16.858582 18.4238318,17.116666 L18.1919664,26.4457231 L18.424262,30.7978342 C18.4294241,31.0532015 18.6225735,31.2555937 18.8639028,31.2555937 Z M10.684519,31.2148436 C10.8269076,31.2148436 10.942195,31.0948572 10.9529494,30.9368373 L11.3306447,26.4402898 L10.9529494,22.1628872 C10.9426252,22.0048674 10.8273377,21.8857865 10.684519,21.8857865 C10.5399796,21.8857865 10.4246922,22.0057729 10.4156584,22.1646983 L10.0831317,26.4402898 L10.4156584,30.9363846 C10.4251223,31.0948572 10.5399796,31.2148436 10.684519,31.2148436 Z M7.50293058,30.9685319 C7.60703339,30.9685319 7.69134807,30.8820511 7.70339302,30.7625175 L8.12754745,26.4393842 L7.7038232,21.9532506 C7.69134807,21.8332642 7.60703339,21.7467834 7.50293058,21.7467834 C7.39753724,21.7467834 7.31322256,21.8337169 7.30246814,21.9532506 C7.30246814,21.9537034 6.92907458,26.4393842 6.92907458,26.4393842 L7.30246814,30.7616119 C7.31279239,30.8815983 7.39710706,30.9685319 7.50293058,30.9685319 Z M20.5381513,16.9613629 C20.2778943,16.9613629 20.0692585,17.1791495 20.0640964,17.4580614 L19.8524493,26.4461759 L20.0640964,30.7711203 C20.0692585,31.0464098 20.2774641,31.2641965 20.5381513,31.2641965 C20.7979782,31.2641965 21.0053234,31.0468626 21.0113459,30.7679508 L21.0113459,30.771573 L21.2488036,26.4466287 L21.0113459,17.4571558 C21.0053234,17.1791495 20.7979782,16.9613629 20.5381513,16.9613629 Z M13.9177287,31.2605743 C14.0975426,31.2605743 14.2459536,31.1061767 14.2545572,30.9092178 L14.5849331,26.4434592 L14.2545572,17.8958986 C14.2455235,17.698487 14.0975426,17.5445421 13.9177287,17.5445421 C13.736194,17.5445421 13.5882132,17.6989397 13.58047,17.8958986 C13.58047,17.8963514 13.2879497,26.4434592 13.2879497,26.4434592 L13.5809001,30.9110289 C13.5882132,31.1061767 13.736194,31.2605743 13.9177287,31.2605743 Z M17.6069258,30.8390371 L17.6069258,30.8367732 L17.8908426,26.4448176 L17.6069258,16.8712599 C17.600043,16.6335509 17.4219498,16.447006 17.2021294,16.447006 C16.9810184,16.447006 16.8029252,16.6330981 16.7969027,16.8712599 L16.5448191,26.4443648 L16.7973329,30.8385843 C16.8033554,31.0740294 16.9814486,31.2601215 17.2021294,31.2601215 C17.42238,31.2601215 17.5996128,31.0740294 17.6069258,30.837226 L17.6069258,30.8390371 L17.6069258,30.8390371 Z M39.0804969,20.926348 C38.4064096,20.926348 37.7632952,21.0698789 37.1773942,21.3284157 C36.7859332,16.6611704 33.067484,13 28.5316987,13 C27.4218422,13 26.3399473,13.2300117 25.3845244,13.6189488 C25.0132817,13.770177 24.914341,13.9259329 24.9108996,14.2279365 L24.9108996,30.6638116 C24.9147712,30.9807569 25.1483573,31.244727 25.4421681,31.2759688 C25.4546432,31.2773271 38.9923106,31.2845716 39.0800667,31.2845716 C41.797064,31.2845716 44,28.9658907 44,26.1056861 C44,23.2454816 41.7974942,20.926348 39.0804969,20.926348 Z M23.905146,14.2134475 C23.6096145,14.2134475 23.3669947,14.4688149 23.3626929,14.7825907 L23.1407216,26.4484398 L23.3631231,30.6823756 C23.3669947,30.9916236 23.6096145,31.2465381 23.905146,31.2465381 C24.1998172,31.2465381 24.442437,30.9916236 24.4467387,30.6778478 L24.4467387,30.6828284 L24.688068,26.4484398 L24.4467387,14.7816851 C24.442437,14.4688149 24.1998172,14.2134475 23.905146,14.2134475 Z" id="Shape" fill="#FFFFFF" fill-rule="nonzero"></path>
    </g>
</svg>

<svg width="48" height="48" xmlns="http://www.w3.org/2000/svg"><defs><linearGradient x1="50%" y1="0%" x2="50%" y2="100.001%" id="a"><stop stop-color="#F79810" offset="0%"/><stop stop-color="#F8310E" offset="100%"/></linearGradient></defs><g fill="none" fill-rule="nonzero"><circle fill="url(#a)" cx="24" cy="24" r="24"/><path d="M4.453 23.936c-.083 0-.15.067-.16.164L4 26.44l.293 2.298c.01.097.077.165.16.165.08 0 .147-.067.16-.164l.346-2.3-.346-2.338c-.013-.097-.08-.164-.16-.164zm1.645-1.278c-.014-.1-.082-.17-.167-.17-.084 0-.154.072-.166.17l-.393 3.78.393 3.698c.011.1.081.171.166.171.084 0 .153-.07.167-.17l.447-3.698-.447-3.781zm6.196-3.488c-.161 0-.294.139-.302.316l-.313 6.956.313 4.496c.008.175.14.314.302.314.16 0 .294-.139.303-.315v.001l.354-4.496-.354-6.956c-.01-.177-.142-.316-.303-.316zm-3.207 2.418c-.124 0-.225.104-.235.243l-.352 4.61.352 4.459c.01.138.111.242.235.242.123 0 .224-.104.235-.242l.4-4.46-.4-4.61c-.011-.138-.112-.242-.235-.242zm6.466 9.664c.2 0 .363-.17.371-.388l.307-4.42-.306-9.261c-.009-.218-.171-.387-.371-.387-.202 0-.365.17-.372.387l-.272 9.26.272 4.423c.007.215.17.386.371.386zm6.672.02c.276 0 .503-.238.508-.532v.004-.004l.214-4.293-.214-10.696c-.005-.293-.232-.532-.508-.532-.275 0-.503.238-.507.532l-.192 10.692.192 4.3c.004.29.232.53.507.53zm-3.361-.016c.24 0 .433-.203.44-.46v.002l.26-4.353-.261-9.328c-.007-.258-.2-.46-.44-.46s-.434.202-.44.46l-.231 9.329.232 4.352c.005.255.199.458.44.458zm-8.18-.041c.143 0 .258-.12.269-.278l.378-4.497-.378-4.277c-.01-.158-.126-.277-.268-.277-.145 0-.26.12-.27.279l-.332 4.275.333 4.496c.01.159.124.279.269.279zm-3.181-.246c.104 0 .188-.087.2-.206l.425-4.324-.424-4.486c-.013-.12-.097-.206-.201-.206-.105 0-.19.087-.2.206l-.374 4.486.373 4.323c.01.12.095.207.2.207zM20.538 16.96c-.26 0-.469.218-.474.497l-.212 8.988.212 4.325c.005.275.213.493.474.493.26 0 .467-.217.473-.496v.004l.238-4.325-.238-8.99c-.006-.278-.213-.496-.473-.496zm-6.62 14.3c.18 0 .328-.155.337-.352l.33-4.466-.33-8.547c-.01-.198-.157-.351-.337-.351-.182 0-.33.154-.338.35l-.292 8.548.293 4.468c.007.195.155.35.337.35zm3.689-.422v-.002l.284-4.392-.284-9.574c-.007-.237-.185-.424-.405-.424-.221 0-.4.186-.405.424l-.252 9.573.252 4.395c.006.235.184.421.405.421.22 0 .398-.186.405-.423v.002zm21.473-9.913a4.7 4.7 0 0 0-1.903.402C36.786 16.661 33.067 13 28.532 13a8.41 8.41 0 0 0-3.147.619c-.372.151-.47.307-.474.609v16.436c.004.317.237.58.531.612l13.638.009c2.717 0 4.92-2.32 4.92-5.18s-2.203-5.179-4.92-5.179zm-15.175-6.713c-.295 0-.538.256-.542.57l-.222 11.665.222 4.234c.004.31.247.565.542.565.295 0 .537-.255.542-.57v.006l.241-4.235-.241-11.666c-.005-.313-.247-.569-.542-.569z" fill="#FFF"/></g></svg>
